!!!COM: Haydn, Franz Joseph
!!!OTL: String Quartet in D Major
!!!OPS: Opus 33
!!!ONM: No. 6
!!!OMD: Andante
!!!OMV: 2
!!!SCT: H III:42
!!!SCA: Thematisch-bibliographisches Werkevererzeichnis (A. van Hoboken)
!!!YOR: Richault Edition, volume 8
!!!ENC: Frances Bennion
!!!CDT: 1732/3/31/-1809/5/31/
!!!CNT: Oesterreich
!!!YEC: Copyright (c) 1994, 2000 Center for Computer Assisted Research in the Humanities
!!!YEM: Rights to all derivative editions reserved.
!!!YEM: Refer to licensing agreement for further details.
!!!YEN: United States of America
**kern	**kern	**kern	**kern
*k[b-]	*k[b-]	*k[b-]	*k[b-]
*d:	*d:	*d:	*d:
*clefF4	*clefC3	*clefF	*clefF
*M4/4	*M4/4	*M4/4	*M4/4
4D	8r	8r	[1aa
.	8f	8dd	.
4r	8f	8dd	.
.	8f	8dd	.
4d	8f	8dd	.
.	8a	8ff	.
4r	8g	8ee	.
.	8f	8dd	.
=2	=2	=2	=2
[2e	[2g	4..dd	1aa_
.	.	32ee	.
.	.	32dd	.
8e]	8g]	8cc#	.
8e	8g	8cc#	.
8e	8g	16cc#	.
.	.	16dd	.
8d	8f	16dd	.
.	.	16ee	.
=3	=3	=3	=3
4c#	8e	8ee	1aa_
.	8g	8ee	.
4r	8g	8ee	.
.	8g	8ee	.
4c#	8g	8ee	.
.	8b-	8gg	.
4r	8a	8ff	.
.	8g	8ee	.
=4	=4	=4	=4
2d	4..g	4..ee	1aa_
.	32a	32ff	.
.	32g	32ee	.
2D	8f	8dd	.
.	8f	8dd	.
.	16.f	16.dd	.
.	32a	32ff	.
.	16.g	16.ee	.
.	32b-	32gg	.
=5	=5	=5	=5
2d	8a	8ff	2aa_
.	8a	8ff	.
.	8a	8ff	.
.	8a	8ff	.
2c	8r	8r	8aa]
.	8f#	8ee-	8aa
.	8f#	8ee-	8aa
.	8f#	8ee-	8aa
=6	=6	=6	=6
1B-	2f#	2ee-	[2aa
.	2g	2dd	16aa]
.	.	.	16ddd
.	.	.	16ccc
.	.	.	16bb-
.	.	.	16aa
.	.	.	16gg
.	.	.	16ff#
.	.	.	16gg
=7	=7	=7	=7
1B	1g#	1d	8r
.	.	.	8ff
.	.	.	8ff
.	.	.	8ff
.	.	.	8.ff
.	.	.	32gg
.	.	.	32ff
.	.	.	8ee
.	.	.	8dd
=8	=8	=8	=8
1A	2a	2f	4..dd
.	.	.	32ee
.	.	.	32dd
.	8g	8e	16.cc#
.	.	.	32dd
.	8f	8d	16.b
.	.	.	32cc#
.	8e	8c#	16.a
.	.	.	32b
.	8f	8d	16.g#
.	.	.	32b
=9	=9	=9	=9
1A	4..e	4..c#	4..a
.	16f	16d	16g#
.	8.e	8.c#	8.a
.	16f	16d	16g#
.	16.e	16.c#	16.a
.	32f	32d	32g#
.	16.e	16.c#	16.a
.	32f	32d	32g#
=10	=10	=10	=10
2A	2e	2c#	[4..a
.	.	.	32a]
.	.	.	32b-
2G	2e	2c	4..b-
.	.	.	32a
.	.	.	32b-
=11	=11	=11	=11
4F	8f 8A	8A	[2cc
.	8f	8a	.
4r	8f	8a	.
.	8f	8a	.
4F	8r	8r	16cc]
.	.	.	16aa
.	8a	8cc	16gg
.	.	.	16ff
4r	8g	8b-	16ee
.	.	.	16ff
.	8f	8a	16ee
.	.	.	16ff
=12	=12	=12	=12
4C	8r	8r	4..ff
.	8g	8b-	.
4r	8g	8b-	.
.	8g	8b-	.
.	.	.	32gg
.	.	.	32ff
4C	8r	8r	8ee
.	8g	8b-	8ee
4r	8g	8b-	16.ee
.	.	.	32gg
.	8f	8a	16.ff
.	.	.	32aa
=13	=13	=13	=13
4C	8e	8g	[2gg
.	8e	8b-	.
4r	8e	8b-	.
.	8e	8b-	.
4C	8r	8r	16gg]
.	.	.	16ee
.	8e	8b-	16bb-
.	.	.	16gg
4r	8e	8b-	8.ddd
.	8e	8b-	.
.	.	.	16ccc
=14	=14	=14	=14
4F	8r	8r	4.ccc
.	8e	8b-	.
4r	8e	8b-	.
.	8e	8g	8bb-
4F	8r	8r	4aa
.	8f	8a	.
4r	8f	8a	4ccc
.	8f	8a	.
=15	=15	=15	=15
4A	8r	8r	2fff
.	8f	8cc	.
4r	8f	8cc	.
.	8f	8cc	.
4A	8r	8r	16fff
.	.	.	16eee
.	8f	8cc	16fff
.	.	.	16eee
4r	8f	8cc	16fff
.	.	.	16eee
.	8f	8ff	16ddd
.	.	.	16ccc#
=16	=16	=16	=16
4B-	8r	8r	[2ddd
.	8f	8dd	.
4r	8f	8dd	.
.	8f	8dd	.
4B-	8r	8r	16ddd]
.	.	.	16ccc#
.	8f#	8dd	16ddd
.	.	.	16aa
4r	8f#	8dd	16bb-
.	.	.	16aa
.	8f#	8dd	16bb-
.	.	.	16ff#
=17	=17	=17	=17
4B-	8r	8r	[4gg
.	8g	8dd	.
4r	8g	8dd	16gg]
.	.	.	16aa
.	8g	8dd	16bb-
.	.	.	16ccc
8B-	8r	8r	8ddd
8r	8g	8b-	8eee
8B	8r	8r	8fff
8r	8f	8a	16aa
.	.	.	16ff
=18	=18	=18	=18
4c	8e	8g	[1ccc
.	8g	8ee	.
4r	8g	8ee	.
.	8g	8ee	.
4c	8g	8ee	.
.	8b-	8gg	.
4r	8a	8ff	.
.	8g	8ee	.
=19	=19	=19	=19
4c	8r	8r	1ccc_
.	8a	8ff	.
4r	8a	8ff	.
.	8a	8ff	.
4c	8a	8ff	.
.	8cc	8aa	.
4r	8b-	8gg	.
.	8a	8ff#	.
=20	=20	=20	=20
1e	8r	8r	1ccc_
.	8b-	8gg	.
.	8b-	8gg	.
.	8b-	8gg	.
.	8b-	8gg	.
.	8dd	8bb-	.
.	8cc	8aa	.
.	8b-	8gg	.
=21	=21	=21	=21
1f	8a	1aa	8ccc]
.	8cc	.	8eee-
.	8cc	.	8eee-
.	8cc	.	8eee-
.	8cc	.	8eee-
.	8ee-	.	8ggg
.	8dd	.	8fff
.	8cc	.	8eee-
=22	=22	=22	=22
4B-	8b-	8bb-	[4ddd
.	8dd	8ff	.
4r	8dd	8ff	16ddd]
.	.	.	16ccc#
.	8dd	8ff	16ddd
.	.	.	16ccc#
4B-	8r	8r	16ddd
.	.	.	16eee
.	8b-	8dd	16fff
.	.	.	16ccc#
4r	8b-	8dd	16ddd
.	.	.	16aa
.	8b-	8dd	16bb-
.	.	.	16gg
=23	=23	=23	=23
4c	8a	8cc	[4ff
.	8a	8ff	.
4r	8a	8ff	16ff]
.	.	.	16ccc
.	8a	8ff	16bb-
.	.	.	16aa
4C	8r	8r	2gg
.	8b-	8ee	.
4r	8b-	8ee	.
.	8b-	8ee	.
=24	=24	=24	=24
4F	8a	4ff	[1ff
.	8f	.	.
4r	8f	2.r	.
.	8f	.	.
4F	8f	.	.
.	8a	.	.
4r	8g	.	.
.	8f	.	.
=25	=25	=25	=25
1c	1g	8r	2ff]
.	.	8b-	.
.	.	8b-	.
.	.	8b-	.
.	.	8b-	2ee
.	.	8dd	.
.	.	8cc	.
.	.	8b-	.
=26	=26	=26	=26
1f	8r	2b-	[2ee-
.	8cc	.	.
.	8cc	.	.
.	8cc	.	.
.	8cc	2a	8ee-]
.	8ee-	.	8gg
.	8dd	.	8ff
.	8cc	.	8ee-
=27	=27	=27	=27
8r	[1cc	2.a	2ee-
8f#	.	.	.
8f#	.	.	.
8f#	.	.	.
8f#	.	.	[2dd
8a	.	.	.
8g	.	[4dd	.
8f#	.	.	.
=28	=28	=28	=28
1g	2cc]	2dd]	8dd]
.	.	.	8gg
.	.	.	8gg
.	.	.	8gg
.	2b-	2ee-	8gg
.	.	.	8bb-
.	.	.	8gg
.	.	.	8ee-
=29	=29	=29	=29
8r	8r	2b-	2dd
8e	8g	.	.
8e	8g	.	.
8e	8g	.	.
8e	8g	8b-	2cc#
8g	8b-	8e	.
8f	8a	8f	.
8e	8g	8g	.
=30	=30	=30	=30
1d	2g	2a	8r
.	.	.	8dd
.	.	.	8dd
.	.	.	8dd
.	2f	2g#	8dd
.	.	.	8ff
.	.	.	8ee
.	.	.	8dd
=31	=31	=31	=31
2A	8r	8r	[1aa
.	8c#	8e	.
.	8c#	8e	.
.	8c#	8e	.
2r	8c#	8e	.
.	8g	8b-	.
.	8f	8a	.
.	8e	8g	.
=32	=32	=32	=32
4d	8d	8f	1aa_
.	8f	8dd	.
4r	8f	8dd	.
.	8f	8dd	.
4d	8f	8dd	.
.	8a	8ff	.
4r	8g	8ee	.
.	8f	8dd	.
=33	=33	=33	=33
[2e	[2g	4..dd	1aa_
.	.	32ee	.
.	.	32dd	.
8e]	8g]	8cc#	.
8e	8g	8cc#	.
8e	8g	16cc#	.
.	.	16dd	.
8d	8f	16dd	.
.	.	16ee	.
=34	=34	=34	=34
4c#	8e	8ee	1aa_
.	8g	8ee	.
4r	8g	8ee	.
.	8g	8ee	.
4c#	8g	8ee	.
.	8b-	8gg	.
4r	8a	8ff	.
.	8g	8ee	.
=35	=35	=35	=35
1d	4..g	4..ee	1aa_
.	32a	32ff	.
.	32g	32ee	.
.	8f	8dd	.
.	8f	8dd	.
.	16.f	16.dd	.
.	32a	32ff	.
.	16.g	16.ee	.
.	32b-	32gg	.
=36	=36	=36	=36
2d	8a	8ff	2aa_
.	8a	8ff	.
.	8a	8ff	.
.	8a	8ff	.
2c	8r	8r	8aa]
.	8f#	8ee-	8aa
.	8f#	8ee-	8aa
.	8f#	8ee-	8aa
=37	=37	=37	=37
1B-	2f#	2ee-	[2aa
.	2g	2dd	16aa]
.	.	.	16ddd
.	.	.	16ccc
.	.	.	16bb-
.	.	.	16aa
.	.	.	16gg
.	.	.	16ff#
.	.	.	16gg
=38	=38	=38	=38
1B	1g#	1d	8r
.	.	.	8ff
.	.	.	8ff
.	.	.	8ff
.	.	.	8.ff
.	.	.	32gg
.	.	.	32ff
.	.	.	8ee
.	.	.	8dd
=39	=39	=39	=39
[1A	2a	2f	4..dd
.	.	.	32ee
.	.	.	32dd
.	8g	8e	16.cc#
.	.	.	32dd
.	8f	8d	16.b
.	.	.	32cc#
.	8e	8c#	16.a
.	.	.	32b
.	8f	8d	16.g#
.	.	.	32b
=40	=40	=40	=40
2A]	8e	8c#	4..a
.	8e	8c#	.
.	8e	8c#	.
.	8e	8c#	.
.	.	.	16g#
2G	8e	8c#	8.a
.	8e	8c#	.
.	.	.	16g#
.	8e	8c#	16.a
.	.	.	32g#
.	8e	8c#	16.a
.	.	.	32g#
=41	=41	=41	=41
1F#	8e	8c	4..a
.	8e	8c	.
.	8e	8c	.
.	8e	8c	.
.	.	.	16g#
.	8d	8c	16.a
.	.	.	32g#
.	8d	8c	16.a
.	.	.	32g#
.	8d	8a	16.a
.	.	.	32b-
.	8d	8a	16.cc
.	.	.	32cc
=42	=42	=42	=42
4G	1d	2a	2cc
16.G	.	.	.
32F#	.	.	.
16.G	.	.	.
32F#	.	.	.
16.G	.	[2g	2b-
32A	.	.	.
16.B-	.	.	.
32A	.	.	.
16.G	.	.	.
32F	.	.	.
16.E	.	.	.
32D	.	.	.
=43	=43	=43	=43
2C#	2e	2g]	16.a
.	.	.	32b
.	.	.	16.cc#
.	.	.	32dd
.	.	.	16.ee
.	.	.	32ff
.	.	.	16.gg
.	.	.	32ee
16.D	[2d	2f	[2ff
32E	.	.	.
16.F	.	.	.
32E	.	.	.
16.D	.	.	.
32C	.	.	.
16.BB-	.	.	.
32AA	.	.	.
=44	=44	=44	=44
[2GG#	4d]	8f	8ff]
.	.	8ff	8ddd
.	4.r	8ff	8ddd
.	.	8ff	8ddd
8GG#]	.	8ff	8ddd
8GG#	8d	8dd	8ff
8GG#	8f	8dd	8ff
8GG#	8d	8dd	8ff
=45	=45	=45	=45
1AA	4A	4dd	2ff
.	4r	4r	.
.	2g	2cc#	2ee
=46	=46	=46	=46
4D	8r	8r	[1dd
.	8f#	8a	.
4r	8f#	8a	.
.	8f#	8a	.
4D	8f#	8a	.
.	8a	8cc	.
4r	8g	8b-	.
.	8f#	8a	.
=47	=47	=47	=47
4D	8r	8r	1dd_
.	8B-	8g	.
4r	8B-	8g	.
.	8B-	8g	.
4D	8B-	8g	.
.	8d	8b-	.
4r	8c	8a	.
.	8B-	8g	.
=48	=48	=48	=48
1DD	4..A	4..f#	4..dd]
.	16B-	16g	16cc#
.	8.A	8.f#	8.dd
.	16B-	16g	16cc#
.	8.A	8.f#	8.dd
.	16B-	16g	16cc#
=49	=49	=49	=49
4..DD	[1A	[1f#	[1dd
16CC#	.	.	.
8.DD	.	.	.
16CC#	.	.	.
8.DD	.	.	.
16CC#	.	.	.
=50	=50	=50	=50
1DD	1A]	1f#]	1dd]
==	==	==	==
*-	*-	*-	*-
!!!RWG1: This file contains only pitch and duration data.
!!!RWG2: Transposing instruments are not transposed.
!!!RWG3: Spines may have incompatible meters.
!!!RWG4: Durations of rests and tied notes may be interpreted.
!!!RWG: Key is interpreted using the Humdrum key tool.
!!!GTL: 6 Quators ("Jungfernquartette")
!!!AFT: stage1
!!!END: 1997/04/15
!!!KEY: 3239588781
!!!EMD: Converted from MuseData to Humdrum Dec 16, 2000, by Andreas Kornstaedt using muse2kern.
!!!EMD: Manual editing by Craig Sapp, Nov 2001
